docs/images/icons/strong-color.svg

<svg width="67" height="67" viewBox="0 0 67 67" fill="none" xmlns="http://www.w3.org/2000/svg">
<mask id="path-1-inside-1_227_1395" fill="white">
<path d="M65.8833 66.313H10.6083C7.79583 66.3098 5.09944 65.2184 3.1107 63.2782C1.12196 61.3379 0.00325094 58.7073 0 55.9634V2.03683C0 1.74789 0.117648 1.47079 0.327064 1.26648C0.53648 1.06217 0.820508 0.947395 1.11667 0.947395H20.1C20.3962 0.947395 20.6802 1.06217 20.8896 1.26648C21.099 1.47079 21.2167 1.74789 21.2167 2.03683V17.34L23.4768 13.5205L29.0601 4.08495C29.1337 3.96115 29.2315 3.85269 29.348 3.76577C29.4644 3.67885 29.5973 3.61517 29.7391 3.57836C29.8333 3.55326 29.9306 3.54044 30.0283 3.54023C30.2242 3.54075 30.4167 3.59106 30.5866 3.68621L47.0251 12.9463C47.1521 13.0178 47.2636 13.113 47.3529 13.2264C47.4423 13.3399 47.5079 13.4694 47.546 13.6076C47.584 13.7458 47.5938 13.8899 47.5747 14.0318C47.5557 14.1737 47.5082 14.3105 47.4349 14.4345L41.8516 23.87L39.5925 27.683L43.5009 25.4802L53.1723 20.0331C53.4288 19.8886 53.7336 19.8495 54.0196 19.9242C54.3057 19.999 54.5496 20.1816 54.6977 20.4318L64.1894 36.4714C64.3374 36.7216 64.3775 37.019 64.3009 37.2981C64.2243 37.5772 64.0371 37.8151 63.7807 37.9596L54.1092 43.4067L50.1986 45.6139H65.8833C66.1795 45.6139 66.4635 45.7287 66.6729 45.933C66.8824 46.1373 67 46.4144 67 46.7033V65.2236C67 65.5125 66.8824 65.7896 66.6729 65.9939C66.4635 66.1982 66.1795 66.313 65.8833 66.313ZM33.5 64.1341H42.4333V47.7927H33.5V64.1341ZM41.234 45.6139L33.9835 33.3611L26.2472 37.7188L30.9194 45.6139H41.234ZM22.3333 64.1341H31.2667V47.7927H22.3333V64.1341ZM28.3399 45.6139L24.3132 38.8093L23.45 39.2952L16.5758 43.167L18.0252 45.6139H28.3399ZM11.725 43.3816L14.4921 41.8238L20.6583 38.3507L13.6881 34.4287L13.1878 35.2643L9.22143 41.9687L11.725 43.3816ZM8.10253 43.8577L6.71452 46.2054L9.49167 44.6399L8.10253 43.8577ZM12.2309 45.6139H15.4457L14.6417 44.2565L12.2833 45.5845L12.2309 45.6139ZM10.6083 64.1341H20.1V47.7927H10.6083C8.38715 47.7927 6.25693 48.6536 4.68631 50.1859C3.1157 51.7182 2.23333 53.7964 2.23333 55.9634C2.23333 58.1304 3.1157 60.2087 4.68631 61.741C6.25693 63.2733 8.38715 64.1341 10.6083 64.1341ZM2.23333 49.4182L3.84022 46.7033H2.23333V49.4182ZM2.23333 44.5245H5.12885L6.7268 41.8238L8.04558 39.5959L10.2867 35.809H2.23333V44.5245ZM2.23333 33.6302H11.5765L12.3101 32.3893L16.7344 24.9148H2.23333V33.6302ZM18.9833 3.12625H2.23333V11.8417H18.9833V3.12625ZM18.9833 14.0205H2.23333V22.7359H18.023L18.9833 21.1138V14.0205ZM19.296 25.003L14.8103 32.5408L22.8917 37.0924L24.1624 36.3766L31.825 32.0603L19.296 25.003ZM21.0737 21.9396L20.4037 23.1074L27.7257 27.232L34.0583 30.7977L35.7233 29.8608L39.3569 23.7197L32.0986 19.6343L24.8469 15.549L21.0737 21.9396ZM40.4747 21.8361L44.9414 14.2896L30.437 6.11891L25.9703 13.6654L33.222 17.7507L40.4747 21.8361ZM61.7003 36.6196L53.3253 22.4668L45.5879 26.8245L49.7754 33.9058L53.9629 40.9871L61.7003 36.6196ZM52.0289 42.0667L47.8414 34.9854L43.6538 27.9042L37.1024 31.5951L35.9198 32.2597L43.8135 45.6139H45.732L52.0289 42.0667ZM53.6 47.7927H44.6667V64.1341H53.6V47.7927ZM64.7667 47.7927H55.8333V64.1341H64.7667V47.7927Z"/>
</mask>
<path d="M65.8833 66.313H10.6083C7.79583 66.3098 5.09944 65.2184 3.1107 63.2782C1.12196 61.3379 0.00325094 58.7073 0 55.9634V2.03683C0 1.74789 0.117648 1.47079 0.327064 1.26648C0.53648 1.06217 0.820508 0.947395 1.11667 0.947395H20.1C20.3962 0.947395 20.6802 1.06217 20.8896 1.26648C21.099 1.47079 21.2167 1.74789 21.2167 2.03683V17.34L23.4768 13.5205L29.0601 4.08495C29.1337 3.96115 29.2315 3.85269 29.348 3.76577C29.4644 3.67885 29.5973 3.61517 29.7391 3.57836C29.8333 3.55326 29.9306 3.54044 30.0283 3.54023C30.2242 3.54075 30.4167 3.59106 30.5866 3.68621L47.0251 12.9463C47.1521 13.0178 47.2636 13.113 47.3529 13.2264C47.4423 13.3399 47.5079 13.4694 47.546 13.6076C47.584 13.7458 47.5938 13.8899 47.5747 14.0318C47.5557 14.1737 47.5082 14.3105 47.4349 14.4345L41.8516 23.87L39.5925 27.683L43.5009 25.4802L53.1723 20.0331C53.4288 19.8886 53.7336 19.8495 54.0196 19.9242C54.3057 19.999 54.5496 20.1816 54.6977 20.4318L64.1894 36.4714C64.3374 36.7216 64.3775 37.019 64.3009 37.2981C64.2243 37.5772 64.0371 37.8151 63.7807 37.9596L54.1092 43.4067L50.1986 45.6139H65.8833C66.1795 45.6139 66.4635 45.7287 66.6729 45.933C66.8824 46.1373 67 46.4144 67 46.7033V65.2236C67 65.5125 66.8824 65.7896 66.6729 65.9939C66.4635 66.1982 66.1795 66.313 65.8833 66.313ZM33.5 64.1341H42.4333V47.7927H33.5V64.1341ZM41.234 45.6139L33.9835 33.3611L26.2472 37.7188L30.9194 45.6139H41.234ZM22.3333 64.1341H31.2667V47.7927H22.3333V64.1341ZM28.3399 45.6139L24.3132 38.8093L23.45 39.2952L16.5758 43.167L18.0252 45.6139H28.3399ZM11.725 43.3816L14.4921 41.8238L20.6583 38.3507L13.6881 34.4287L13.1878 35.2643L9.22143 41.9687L11.725 43.3816ZM8.10253 43.8577L6.71452 46.2054L9.49167 44.6399L8.10253 43.8577ZM12.2309 45.6139H15.4457L14.6417 44.2565L12.2833 45.5845L12.2309 45.6139ZM10.6083 64.1341H20.1V47.7927H10.6083C8.38715 47.7927 6.25693 48.6536 4.68631 50.1859C3.1157 51.7182 2.23333 53.7964 2.23333 55.9634C2.23333 58.1304 3.1157 60.2087 4.68631 61.741C6.25693 63.2733 8.38715 64.1341 10.6083 64.1341ZM2.23333 49.4182L3.84022 46.7033H2.23333V49.4182ZM2.23333 44.5245H5.12885L6.7268 41.8238L8.04558 39.5959L10.2867 35.809H2.23333V44.5245ZM2.23333 33.6302H11.5765L12.3101 32.3893L16.7344 24.9148H2.23333V33.6302ZM18.9833 3.12625H2.23333V11.8417H18.9833V3.12625ZM18.9833 14.0205H2.23333V22.7359H18.023L18.9833 21.1138V14.0205ZM19.296 25.003L14.8103 32.5408L22.8917 37.0924L24.1624 36.3766L31.825 32.0603L19.296 25.003ZM21.0737 21.9396L20.4037 23.1074L27.7257 27.232L34.0583 30.7977L35.7233 29.8608L39.3569 23.7197L32.0986 19.6343L24.8469 15.549L21.0737 21.9396ZM40.4747 21.8361L44.9414 14.2896L30.437 6.11891L25.9703 13.6654L33.222 17.7507L40.4747 21.8361ZM61.7003 36.6196L53.3253 22.4668L45.5879 26.8245L49.7754 33.9058L53.9629 40.9871L61.7003 36.6196ZM52.0289 42.0667L47.8414 34.9854L43.6538 27.9042L37.1024 31.5951L35.9198 32.2597L43.8135 45.6139H45.732L52.0289 42.0667ZM53.6 47.7927H44.6667V64.1341H53.6V47.7927ZM64.7667 47.7927H55.8333V64.1341H64.7667V47.7927Z" fill="#3742F3" stroke="white" stroke-width="0.4" mask="url(#path-1-inside-1_227_1395)"/>
<path d="M11.1723 53.3755C10.5922 52.9973 9.90984 52.7953 9.21164 52.7953C8.27502 52.7962 7.37752 53.1597 6.71617 53.8053C6.05491 54.4508 5.68378 55.3255 5.6835 56.2371L5.5835 56.237L5.6835 56.237C5.68392 56.9166 5.89088 57.5811 6.27849 58.1464C6.66613 58.7117 7.21713 59.1526 7.86212 59.4129C8.50713 59.6732 9.21691 59.7411 9.90162 59.608C10.5863 59.4748 11.2149 59.1467 11.7079 58.6654C12.2009 58.1841 12.5363 57.5713 12.6721 56.9046C12.8078 56.238 12.7379 55.547 12.4712 54.9189C12.2044 54.2908 11.7525 53.7536 11.1723 53.3755ZM10.041 57.4522C9.79528 57.6124 9.50663 57.6977 9.21155 57.6977C9.01559 57.6977 8.82151 57.6601 8.64034 57.5869C8.45918 57.5137 8.29441 57.4063 8.1555 57.2708C8.01659 57.1353 7.90627 56.9742 7.83095 56.7968C7.75563 56.6194 7.71683 56.4292 7.71683 56.237C7.71683 55.9476 7.80482 55.6648 7.96938 55.4246C8.13391 55.1843 8.36751 54.9975 8.64034 54.8872C8.91316 54.777 9.21323 54.7482 9.50269 54.8043C9.79217 54.8605 10.0584 54.9992 10.2676 55.2033C10.4768 55.4074 10.6196 55.6678 10.6774 55.9516C10.7353 56.2354 10.7056 56.5296 10.5921 56.7968C10.4787 57.064 10.2868 57.292 10.041 57.4522Z" fill="#3742F3" stroke="white" stroke-width="0.2"/>
</svg>

<svg width="67" height="67" fill="none" xmlns="http://www.w3.org/2000/svg"><mask id="a" fill="#fff"><path d="M65.883 66.313H10.608a10.757 10.757 0 0 1-7.497-3.035A10.236 10.236 0 0 1 0 55.963V2.037c0-.29.118-.566.327-.77.21-.205.494-.32.79-.32H20.1c.296 0 .58.115.79.32.209.204.327.48.327.77V17.34l2.26-3.82 5.583-9.435a1.1 1.1 0 0 1 .68-.507 1.133 1.133 0 0 1 .847.108l16.438 9.26a1.11 1.11 0 0 1 .521.662 1.064 1.064 0 0 1-.111.826l-5.583 9.436-2.26 3.813 3.909-2.203 9.671-5.447c.257-.144.562-.184.848-.109.286.075.53.258.678.508l9.491 16.04c.148.25.189.547.112.826-.077.28-.264.517-.52.662l-9.672 5.447-3.91 2.207h15.684c.297 0 .58.115.79.319.21.204.327.481.327.77v18.52c0 .29-.118.567-.327.77a1.13 1.13 0 0 1-.79.32ZM33.5 64.134h8.933V47.793H33.5v16.341Zm7.734-18.52-7.25-12.253-7.737 4.358 4.672 7.895h10.315Zm-18.9 18.52h8.933V47.793h-8.934v16.341Zm6.006-18.52-4.027-6.805-.863.486-6.874 3.872 1.45 2.447H28.34Zm-16.615-2.232 2.767-1.558 6.166-3.473-6.97-3.922-.5.835L9.22 41.97l2.504 1.413Zm-3.622.476-1.388 2.347 2.777-1.565-1.39-.782Zm4.128 1.756h3.215l-.804-1.357-2.359 1.328-.052.029Zm-1.623 18.52H20.1V47.793h-9.492c-2.22 0-4.351.86-5.922 2.393a8.07 8.07 0 0 0-2.453 5.777c0 2.167.883 4.246 2.453 5.778a8.482 8.482 0 0 0 5.922 2.393ZM2.233 49.418l1.607-2.715H2.233v2.715Zm0-4.893H5.13l1.598-2.701 1.319-2.228 2.24-3.787H2.234v8.716Zm0-10.895h9.343l.734-1.24 4.424-7.475h-14.5v8.715Zm16.75-30.504H2.233v8.716h16.75V3.126Zm0 10.895H2.233v8.715h15.79l.96-1.622V14.02Zm.313 10.982-4.486 7.538 8.082 4.551 1.27-.715 7.663-4.317-12.529-7.057Zm1.778-3.063-.67 1.167 7.322 4.125 6.332 3.566 1.665-.937 3.634-6.141-7.258-4.086-7.252-4.085-3.773 6.39Zm19.4-.104 4.467-7.546-14.504-8.171-4.467 7.546 7.252 4.086 7.253 4.085ZM61.7 36.62l-8.375-14.153-7.737 4.358 4.187 7.08 4.188 7.082L61.7 36.62Zm-9.671 5.447-4.188-7.082-4.187-7.08-6.552 3.69-1.182.665 7.893 13.354h1.919l6.297-3.547Zm1.571 5.726h-8.933v16.341H53.6V47.793Zm11.167 0h-8.934v16.341h8.934V47.793Z"/></mask><path d="M65.883 66.313H10.608a10.757 10.757 0 0 1-7.497-3.035A10.236 10.236 0 0 1 0 55.963V2.037c0-.29.118-.566.327-.77.21-.205.494-.32.79-.32H20.1c.296 0 .58.115.79.32.209.204.327.48.327.77V17.34l2.26-3.82 5.583-9.435a1.1 1.1 0 0 1 .68-.507 1.133 1.133 0 0 1 .847.108l16.438 9.26a1.11 1.11 0 0 1 .521.662 1.064 1.064 0 0 1-.111.826l-5.583 9.436-2.26 3.813 3.909-2.203 9.671-5.447c.257-.144.562-.184.848-.109.286.075.53.258.678.508l9.491 16.04c.148.25.189.547.112.826-.077.28-.264.517-.52.662l-9.672 5.447-3.91 2.207h15.684c.297 0 .58.115.79.319.21.204.327.481.327.77v18.52c0 .29-.118.567-.327.77a1.13 1.13 0 0 1-.79.32ZM33.5 64.134h8.933V47.793H33.5v16.341Zm7.734-18.52-7.25-12.253-7.737 4.358 4.672 7.895h10.315Zm-18.9 18.52h8.933V47.793h-8.934v16.341Zm6.006-18.52-4.027-6.805-.863.486-6.874 3.872 1.45 2.447H28.34Zm-16.615-2.232 2.767-1.558 6.166-3.473-6.97-3.922-.5.835L9.22 41.97l2.504 1.413Zm-3.622.476-1.388 2.347 2.777-1.565-1.39-.782Zm4.128 1.756h3.215l-.804-1.357-2.359 1.328-.052.029Zm-1.623 18.52H20.1V47.793h-9.492c-2.22 0-4.351.86-5.922 2.393a8.07 8.07 0 0 0-2.453 5.777c0 2.167.883 4.246 2.453 5.778a8.482 8.482 0 0 0 5.922 2.393ZM2.233 49.418l1.607-2.715H2.233v2.715Zm0-4.893H5.13l1.598-2.701 1.319-2.228 2.24-3.787H2.234v8.716Zm0-10.895h9.343l.734-1.24 4.424-7.475h-14.5v8.715Zm16.75-30.504H2.233v8.716h16.75V3.126Zm0 10.895H2.233v8.715h15.79l.96-1.622V14.02Zm.313 10.982-4.486 7.538 8.082 4.551 1.27-.715 7.663-4.317-12.529-7.057Zm1.778-3.063-.67 1.167 7.322 4.125 6.332 3.566 1.665-.937 3.634-6.141-7.258-4.086-7.252-4.085-3.773 6.39Zm19.4-.104 4.467-7.546-14.504-8.171-4.467 7.546 7.252 4.086 7.253 4.085ZM61.7 36.62l-8.375-14.153-7.737 4.358 4.187 7.08 4.188 7.082L61.7 36.62Zm-9.671 5.447-4.188-7.082-4.187-7.08-6.552 3.69-1.182.665 7.893 13.354h1.919l6.297-3.547Zm1.571 5.726h-8.933v16.341H53.6V47.793Zm11.167 0h-8.934v16.341h8.934V47.793Z" fill="#3742F3" stroke="#fff" stroke-width=".4" mask="url(#a)"/><path d="M11.172 53.376a3.592 3.592 0 0 0-4.456.43 3.4 3.4 0 0 0-1.032 2.431h-.1.1c0 .68.207 1.344.594 1.91a3.51 3.51 0 0 0 1.584 1.266c.645.26 1.355.328 2.04.195a3.557 3.557 0 0 0 1.806-.943 3.414 3.414 0 0 0 .964-1.76 3.36 3.36 0 0 0-.2-1.986 3.46 3.46 0 0 0-1.3-1.543Zm-1.131 4.076a1.52 1.52 0 0 1-1.886-.181 1.459 1.459 0 0 1-.438-1.034c0-.29.088-.572.252-.812a1.503 1.503 0 0 1 1.534-.621 1.5 1.5 0 0 1 .765.4 1.43 1.43 0 0 1 .325 1.593 1.468 1.468 0 0 1-.552.655Z" fill="#3742F3" stroke="#fff" stroke-width=".2"/></svg>
